lib/flags/l/HKG.svg

<svg xmlns="http://www.w3.org/2000/svg" fill="none" viewBox="0 0 32 24"><mask id="HKG_svg__a" width="32" height="24" x="0" y="0" mask-type="alpha" maskUnits="userSpaceOnUse"><path fill="#fff" d="M0 0H32V24H0z"/></mask><g mask="url(#HKG_svg__a)"><path fill="#EA1A1A" fill-rule="evenodd" d="M0 0V24H32V0H0Z" clip-rule="evenodd"/><mask id="HKG_svg__b" width="32" height="24" x="0" y="0" mask-type="alpha" maskUnits="userSpaceOnUse"><path fill="#fff" fill-rule="evenodd" d="M0 0V24H32V0H0Z" clip-rule="evenodd"/></mask><g mask="url(#HKG_svg__b)"><path fill="#fff" fill-rule="evenodd" d="M15.8695 11.5747C15.8695 11.5747 10.0798 6.41145 16.9886 3.40308C16.9886 3.40308 18.9979 5.61969 17.4906 8.10816C16.996 8.92432 16.579 9.50713 16.2655 9.94512C15.6234 10.8425 15.4163 11.1319 15.8695 11.5747ZM7.32471 7.86746C6.92707 15.3923 14.134 12.522 14.134 12.522C13.5355 12.7293 13.3692 12.4147 12.8538 11.4395L12.8538 11.4395C12.6021 10.9633 12.2672 10.3296 11.7581 9.52226C10.2061 7.0613 7.32471 7.86746 7.32471 7.86746ZM18.2381 11.827C18.2381 11.827 25.67 14.0519 20.686 19.7036C20.686 19.7036 17.9267 18.5464 18.2381 15.6539C18.3403 14.7055 18.4712 14.0011 18.5695 13.4716C18.7711 12.3864 18.8361 12.0363 18.2381 11.827ZM16.2847 13.5617C16.2847 13.5617 17.617 21.204 10.3336 19.2726C10.3336 19.2726 10.1353 16.2873 12.8618 15.2728C13.7561 14.94 14.4449 14.742 14.9625 14.5932L14.9625 14.5932L14.9625 14.5932L14.9625 14.5932C16.0229 14.2884 16.365 14.1901 16.2847 13.5617ZM25.4786 10.2753C20.9232 4.27308 17.2738 11.1184 17.2738 11.1184C17.597 10.5736 17.9272 10.7064 18.9502 11.1182C19.45 11.3193 20.115 11.5869 21.0254 11.8746C23.7993 12.7513 25.4786 10.2753 25.4786 10.2753Z" clip-rule="evenodd"/><path fill="#EA1A1A" d="M9.9502 10.3421L10.3722 10.074C11.2985 11.5319 12.5008 12.2492 14.0011 12.2492V12.7492C12.3226 12.7492 10.9649 11.9391 9.9502 10.3421Z"/><path fill="#EA1A1A" fill-rule="evenodd" d="M21.75 10.75C22.1642 10.75 22.5 10.4142 22.5 10 22.5 9.58579 22.1642 9.25 21.75 9.25 21.3358 9.25 21 9.58579 21 10 21 10.4142 21.3358 10.75 21.75 10.75zM19.9585 15.728C20.3727 15.728 20.7085 15.3922 20.7085 14.978 20.7085 14.5638 20.3727 14.228 19.9585 14.228 19.5443 14.228 19.2085 14.5638 19.2085 14.978 19.2085 15.3922 19.5443 15.728 19.9585 15.728zM13.9585 17.728C14.3727 17.728 14.7085 17.3922 14.7085 16.978 14.7085 16.5638 14.3727 16.228 13.9585 16.228 13.5443 16.228 13.2085 16.5638 13.2085 16.978 13.2085 17.3922 13.5443 17.728 13.9585 17.728zM9.9585 10.728C10.3727 10.728 10.7085 10.3922 10.7085 9.97803 10.7085 9.56381 10.3727 9.22803 9.9585 9.22803 9.54428 9.22803 9.2085 9.56381 9.2085 9.97803 9.2085 10.3922 9.54428 10.728 9.9585 10.728zM15.9585 7.72803C16.3727 7.72803 16.7085 7.39224 16.7085 6.97803 16.7085 6.56381 16.3727 6.22803 15.9585 6.22803 15.5443 6.22803 15.2085 6.56381 15.2085 6.97803 15.2085 7.39224 15.5443 7.72803 15.9585 7.72803z" clip-rule="evenodd"/><path fill="#EA1A1A" d="M15.6346 7.05279 16.0742 7.29106C15.2416 8.82705 15.1829 10.2438 15.8879 11.5698L15.4465 11.8046C14.6592 10.3239 14.7252 8.73045 15.6346 7.05279zM22.0149 9.6858 21.94 10.1802C19.9842 9.88365 18.5202 10.2963 17.5178 11.4096L17.1462 11.075C18.2708 9.82601 19.9038 9.36576 22.0149 9.6858z"/><path fill="#EA1A1A" d="M20.3512 15.3649 19.861 15.4636C19.4707 13.5243 18.5823 12.2898 17.1933 11.7286L17.3806 11.265C18.9389 11.8946 19.9299 13.2717 20.3512 15.3649zM13.9065 17.15 13.6462 16.7231C15.335 15.6931 16.1912 14.436 16.2435 12.9388L16.7432 12.9562C16.6845 14.6359 15.7294 16.0381 13.9065 17.15z"/></g></g></svg>

<svg xmlns="http://www.w3.org/2000/svg" fill="none" viewBox="0 0 32 24"><mask id="HKG_svg__a" width="32" height="24" x="0" y="0" maskUnits="userSpaceOnUse"><path fill="#fff" d="M0 0h32v24H0z"/></mask><g mask="url(#HKG_svg__a)"><path fill="#EA1A1A" fill-rule="evenodd" d="M0 0v24h32V0H0z" clip-rule="evenodd"/><mask id="HKG_svg__b" width="32" height="24" x="0" y="0" maskUnits="userSpaceOnUse"><path fill="#fff" fill-rule="evenodd" d="M0 0v24h32V0H0z" clip-rule="evenodd"/></mask><g mask="url(#HKG_svg__b)"><path fill="#fff" fill-rule="evenodd" d="M15.87 11.575s-5.79-5.163 1.119-8.172c0 0 2.009 2.217.502 4.705-.495.816-.912 1.4-1.225 1.837-.643.897-.85 1.187-.396 1.63zM7.325 7.868c-.398 7.524 6.81 4.654 6.81 4.654-.6.207-.766-.107-1.281-1.082a27.073 27.073 0 00-1.096-1.918c-1.552-2.46-4.433-1.654-4.433-1.654zm10.913 3.96s7.432 2.224 2.448 7.876c0 0-2.76-1.158-2.448-4.05a26.51 26.51 0 01.332-2.182c.201-1.085.266-1.436-.332-1.645zm-1.953 1.734s1.332 7.642-5.951 5.71c0 0-.199-2.985 2.528-4a26.9 26.9 0 012.1-.679c1.061-.304 1.403-.403 1.323-1.031zm9.194-3.287c-4.556-6.002-8.205.843-8.205.843.323-.544.653-.412 1.676 0 .5.201 1.165.469 2.076.757 2.773.876 4.453-1.6 4.453-1.6z" clip-rule="evenodd"/><path fill="#EA1A1A" d="M9.95 10.342l.422-.268c.927 1.458 2.129 2.175 3.63 2.175v.5c-1.68 0-3.037-.81-4.052-2.407z"/><path fill="#EA1A1A" fill-rule="evenodd" d="M21.75 10.75a.75.75 0 100-1.5.75.75 0 000 1.5zm-1.791 4.978a.75.75 0 100-1.5.75.75 0 000 1.5zm-6 2a.75.75 0 100-1.5.75.75 0 000 1.5zm-4-7a.75.75 0 100-1.5.75.75 0 000 1.5zm6-3a.75.75 0 100-1.5.75.75 0 000 1.5z" clip-rule="evenodd"/><path fill="#EA1A1A" d="M15.635 7.053l.44.238c-.833 1.536-.892 2.953-.187 4.279l-.442.235c-.787-1.481-.72-3.075.189-4.752zm6.38 2.633l-.075.494c-1.956-.296-3.42.116-4.422 1.23l-.372-.335c1.125-1.249 2.758-1.71 4.869-1.39z"/><path fill="#EA1A1A" d="M20.351 15.365l-.49.098c-.39-1.939-1.279-3.173-2.668-3.734l.188-.464c1.558.63 2.549 2.007 2.97 4.1zm-6.445 1.785l-.26-.427c1.689-1.03 2.545-2.287 2.598-3.784l.5.017c-.06 1.68-1.015 3.082-2.838 4.194z"/></g></g></svg>
